X:1
T:Fat Meat and Dumplings
L:1/16
Q:1/4=120
M:2/4
I:linebreak $
K:C
V:1 treble 
V:1
 ef |: g2gg gagf | edcA GFED | [CE]2[CE][CD] EGBd | [dg]2[dg][dg][dg]2ef | g2g2 aged | cBAF GFED |$ %7
 [CE]2[CE][CD] EGcd | ed[ce][de] [ce]2 |1 ef :|2 GF |: x8 |: E2c2 G2cG | EGcG AG^FG | D2B2 G2BG |$ %15
 DGBG AG^FG | E2c2 G2cG | EGcG AG^FG | D2BA GABc | dB[ce][de] [ce]2 |1 GF :|2 z2 |] x8 | %23
